X: 849
T: Nora
T: (abc by Comyn)
M: 4/4
L: 1/4
R: ballad
K: D
z2z"D"A|A2FE|"D7"D2ED|"G"D4|"Em"B,D2B,|"D"A,2DD|
"Bm"B,2FA|"E7"(E4|"A7"E2)FG|"D"A2FE|"D7"D2ED|"G"D4|
"E7"B,D2B,|"D"A,2DF|"A"A2FE|"D"(D4|D3)D|"G"B2BB|G2AB|
"D"A4|"Bm"FA2F|"A"E2AA|"E7"^G2cB|"A"(A4|"A7"A2)AA|"D"A2FE|
"D7"D2ED|"G"D4|"E7"B,D2B,|"D"A,2DF|"A"A2FE|"D"(D4|D3)z||
